X: 610
T: Music For A Found Harmonium
B: good tune book
B: tunes
M:4/4
R: reel
Q: 1/4=100
K:Dmajor
V:1 
DE|:FDGD FDDD|FDGD FDDD|FDGD FDDD|EDCD FDDD:|
 |:EDCD EDCD|FDCD FDCD|GDED CDGD|1 FDDD D2 DD:|2 FDDD D2 D=F||
[K: Cmaj] 
|:cFEF GFEF|cFEF E2EF|cFEF GFEF|cFEF E2 EF:|
[K: Fmaj]
BFDF GFDF|BFDF GFDF|BFEF GEEG|BFEF GEEG|
^cGEG cGGG|^cGEG cGGG|^cGEG cGGG|^cGEG cGGG| 
[K: Dmaj]
|:FDGD FDDD|FDGD FDDD|FDGD FDDD|EDCD FDDD:|
 |:EDCD EDCD|FD=CD FDCD|GDED CDGD|1 FDDD D2 DD:|2 FDDD D2DE||
% abcbook-tune_id 63dce6b1e26f5d39eb13595b
% abcbook-tune_composer_id 
% abcbook-link-0 https://www.youtube.com/watch?v=yJg1NNyke2E
% abcbook-link-start-at-0 20
% abcbook-boost 13
% abcbook-difficulty 0
% abcbook-tags good tune book
% abcbook-tablature 
% abcbook-transpose 
% abcbook-tuning 
% abcbook-lastupdated 1675482611420
% abcbook-soundfonts 
% abcbook-repeats 1


